!!!!SEGMENT: pl-wtm--r-2284--pc1_troschel-wilhelm--andante-pc1.krn
!!!cenid: 18xx:2249b
!!!COM: Troschel, Wilhelm
!!!COM-rismid: pe30024099
!!!CDT: 1823/08/23-1887/03/02
!!!CNT: Polish
!!!OTL: Andante
!!!PDT:
!!!AGN:
!!!SMS-siglum: PL-Wtm
!!!SMS-shelfmark: R 2284
!!!SMS-shelfwork: G
!!!SMS-variant:
!!!SMS-altvar:
!!!NIFC-rismid: 1001113733
!!!URL-scan: http://repozytorium.nifc.pl/skany/pl-wtm-nut--r2284
!!!ONB-nifc:
**kern	**kern
*part1	*part1
*staff2	*staff1
*	*I"[Fortepiano]
*	*I'
*clefF4	*clefG2
*k[b-e-a-d-]	*k[b-e-a-d-]
*M12/8	*M12/8
=1	=1
!	!LO:TX:t=P:problem:all\right:global
!LO:TX:t=P:problem:pierwsza grupa zapisana jako sekstola	!LO:TX:a:t=Andante
!	!LO:N:vis=1.
(8AA-\L	1.r
8A-\	.
8E-\	.
8c\	.
8A-\	.
8E-\J)	.
*rep	*
(8AA-\L	.
8A-\	.
8E-\	.
8c\	.
8A-\	.
8E-\J)	.
*Xrep	*
=2	=2
*rep	*
(8AA-\L	2.e-/
8A-\	.
8E-\	.
8c\	.
8A-\	.
8E-\J)	.
*Xrep	*
.	8qg/
8BB-\L	[4.f/
8G\	.
8E-\	.
8d-\	4f/]
8G\	.
8E-\J	8e-/
=3	=3
8C\L	4.e-/
8A-\	.
8E-\	.
8c\	4.a-/
8A-\	.
8E-\J	.
8EE-\L	[4.b-/
8G\	.
8E-\	.
8d-\	4b-/]
8G\	.
8E-\J	8e-/
=4	=4
8AA-\L	4.cc\
8A-\	.
8E-\	.
8c\	4.cc^^\
8A-\	.
8E-\J	.
8AA-\L	4.cc^^\
8A-\	.
8En\	.
8c\	4b-/
8A-\	.
8E\J	8a-/
=5	=5
*	*^
8DD-\L	2.g/	2.ryy
8A-\	.	.
8F\	.	.
8d-\	.	.
8A-\	.	.
8F\J	.	.
8D-\L	4.f/	4.ryy
8A-\	.	.
8d-\J	.	.
8FF\L	4g-X/	4.c\ 4.e-
8F\	.	.
8An\J	8f/	.
*	*v	*v
!!LO:LB:g=original
=6	=6
8BB-\L	2.f/
8B-\	.
8F\	.
8d-\	.
8B-\	.
8F\J	.
.	8qqf/L
.	8qqa-/J
8C\L	[4.g-X/
8An\	.
8F\	.
8e-\	4g-/]
8A\	.
8F\J	8f/
=7	=7
8D-\L	4.f/
8B-\	.
8F\	.
8d-\	4.b-/
8B-\	.
8F\J	.
8FF\L	[4.cc/
8An\	.
8F\	.
8e-\	4cc/]
8A\	.
8F\J	8f/
=8	=8
8BB-\L	4.dd-/
8B-\	.
8F\	.
8d-\	4cc/
8B-\	.
8F\J	8b-/
8BB-\L	8a-/L
8A-\	8f/
8F\	8g/J
8dn\	8a-/L
8A-\	8.cc/
8F\J	.
.	16b-/Jk
=9	=9
*^	*^
4.G/	2.E-\	4.b-/	8r
.	.	.	8d-\L
.	.	.	8e-\J
4.A-/	.	4.a-/	8r
.	.	.	8c\L
.	.	.	8e-\J
8B-/L	2.E-\	4.g/	4ryy
8d-/	.	.	.
8B-/J	.	.	2ryy
.	.	8qg/	.
8A-/L	.	4f/	.
8d-/	.	.	.
8G/J	.	8e-/	.
*v	*v	*	*
*	*v	*v
!!LO:LB:g=original
=10	=10
8AAA-\L 8AA-	2.e-/
8A-\	.
8E-\	.
8c\	.
8A-\	.
8E-\J	.
.	16qqe-/LL
.	16qqg/JJ
8BBB-\L 8BB-	[4.f/
8G\	.
8E-\	.
8d-\	4f/]
8G\	.
8E-\J	8e-/
=11	=11
8CC\L 8C	4.e-/
8A-\	.
8E-\	.
8c\	4.a-/
8A-\	.
8E-\J	.
8EE-\L 8E-	[4.b-/
8G\	.
8E-\	.
8d-\	4b-/]
8G\	.
8E-\J	8e-/
=12	=12
8AAA-\L 8AA-	4cc\
8A-\	.
!	!LO:TUP:a:problem:klamra łukowa
8E-\	24cc\LL
.	24dd-\
.	24cc\JJ
8c\	4bn/
8A-\	.
8E-\J	8cc/
8AA-\L	4dd-\
8A-\	.
8En\	8cc\
8c\	4b\
8A-\	.
8E\J	8a-\
=13	=13
*	*^
8DD-\L	2.g/	2.ryy
8A-\	.	.
8F\	.	.
8d-\	.	.
8A-\	.	.
8F\J	.	.
8D-\L	4.f/	4.ryy
8F\	.	.
8A-\J	.	.
8FF\L	4g-X/	4.c\ 4.e-
8F\	.	.
8An\J	8f/	.
*	*v	*v
!!LO:LB:g=original
=14	=14
8BBB-\L 8BB-	2.f/
8B-\	.
8F\	.
8d-\	.
8B-\	.
8F\J	.
.	16qqf/LL
.	16qqa-/JJ
8C\L	[4.g-X/
8An\	.
8F\	.
8e-\	4g-/]
8A\	.
8F\J	8f/
=15	=15
*^	*^
8r	4.D-\	4.f/	4.ryy
8B-/L	.	.	.
8F/J	.	.	.
8r	4.C\	4b-/	4.e-\
8G-X/L	.	.	.
8F/J	.	8an/	.
8r	4AAn\	4e-/ 4cc	2.ryy
8G-/L	.	.	.
8F/J	8BB-\	8d-/ 8b-	.
8r	4C\	4g-X/ 4ee-	.
8An/L	.	.	.
8B-/J	8D-\	8f/ 8dd-	.
=16	=16	=16	=16
8r	4.E-\	4.cc/	4.e-\
8A-/L	.	.	.
8c/J	.	.	.
4A-/	8F\L	8dn/L 8bn	4.ryy
.	8E-\	8e-/ 8cc	.
8Bn/	8Dn\J	8a-/J 8ff	.
8r	4.F\	4.dn/ 4.b-X	4.ryy
8B/L	.	.	.
8A-X/J	.	.	.
4.G/	8F-\L	8an/L	4.d-X\
.	8E-\	8b-X/	.
.	8EE-\J	8ee-/J	.
*v	*v	*	*
!!LO:LB:g=original
=17	=17	=17
8AA-\L	4.a-/	4.c\
8A-\	.	.
8E-\	.	.
8c\	4.r	4.ryy
8A-\	.	.
8E-\J	.	.
*rep	*	*
8AA-\L	2.r	4.ryy
8A-\	.	.
8E-\	.	.
8c\	.	4.ryy
8A-\	.	.
8E-\J	.	.
*Xrep	*	*
=18	=18	=18
8GG\L	4.e-/ 4.b-	4.ryy
8E-\	.	.
8BB-\	.	.
8G\	8e-/L	4.e-\
8E-\	8cc/	.
8BB-\J	8b-/J	.
8FF\L	2.dn/ 2.b-	2.ryy
8Dn\	.	.
8BB-\	.	.
8A-\	.	.
8D\	.	.
8BB-\J	.	.
=19	=19	=19
8EEn\L	4.d-X/ 4.b-	4.ryy
8D-X\	.	.
8BB-\	.	.
8G\	8d-/L	4.d-\
8D-\	8cc/	.
8BB-\J	8b-/J	.
!	!LO:N:vis=2	!
8FF\L	2.c/ 2.an	2.ryy
8F\	.	.
8C\	.	.
8An\	.	.
8F\	.	.
8C\J	.	.
=20	=20	=20
8FF\L	4.c/ 4.a-X	4.ryy
8C\	.	.
8F\J	.	.
8BBB-\L	8dn/L	4.B-\
8BB-\	8b-/	.
8F\J	8a-/J	.
8EE-\L	[4.B-/ [4.e- [4.g	4.ryy
8E-\	.	.
8BB-\	.	.
8G\	4e-/] 4g]	4B-\]
8E-\	.	.
8BB-\J	8B-/ 8e- 8g	8ryy
!!LO:PB:g=original
=21	=21	=21
*^	*	*
8FFF/L 8FF	4.ryy	[4An/ [4e- [4g	4.ryy
8C/	.	.	.
8F/J	.	16A/LL] 16e-] 16g]	.
.	.	16A/JJ 16e- 16g	.
8FF/L	4.FF\	8e-/L 8g	4.A\
8C/	.	8dn/ 8f	.
8F/J	.	8c/J 8e-	.
8BB-\L	2.ryy	[4.B-/ [4.dn	4ryy
8F\	.	.	.
8Dn\J	.	.	2ryy
8BB-\L	.	4B-/] 4d]	.
8AAn\	.	.	.
8AA-X\J	.	8r	.
=22	=22	=22	=22
8r	4.GG\	4.B-/ 4.e- 4.b-	4.ryy
8G/L	.	.	.
8BB-/J	.	.	.
8r	4.GG-X\	8e-/L	8B-\
8AAn/L	.	8cc/	4e-\
8BB-/J	.	8b-/J	.
8FF\L	2.ryy	2.c/ 2.f 2.an	2.ryy
8F\	.	.	.
8C\	.	.	.
8An\	.	.	.
8F\	.	.	.
8C\J	.	.	.
*v	*v	*	*
=23	=23	=23
8AAA-/L 8AA-	4.c-X/ 4.e- 4.f 4.a-	4.ryy
8C-X/	.	.
8F/J	.	.
8BBB-\L 8BB-	8dn/L	4.B-\
8BB-\	8b-/	.
8F\J	8a-/J	.
8CC-X\L 8C-X	2.c-X/ 2.e- 2.g-X	2.ryy
8E-\	.	.
8C-\	.	.
8G-X\	.	.
8E-\	.	.
8C-\J	.	.
*	*v	*v
!!LO:LB:g=original
=24	=24
!	!LO:T:n=2:a
!	!LO:T:n=1:a
8AAAn\L 8AAn	[4.cn/ [4.e- [4.g-X
8E-\	.
8C\	.
8G-X\	8c/L] 8e-] 8g-]
8E-\	8dn/
8C\J	8e-/J
8BBB-/L	4B-/ 4gn
8EE-/	.
8GGn/J	8b-/ 8gg
8BB-\L	4g/ 4ee-
8E-\	.
8Gn\J	8e-/ 8cc
=25	=25
*^	*^
8F/L	4.BB-\	8dn/L 8b-	2.ryy
8G-X/	.	8c/ 8e- 8an	.
8F/J	.	[8B-/J [8d [8a-X	.
4.BB-/	4.BB-\	8B-/L] 8d] 8a-]	.
.	.	8An/ 8c	.
.	.	8A-X/J 8dn	.
4EE-/ 4E-	2.ryy	8e-/L	4.G\ 4.B-
.	.	8f/	.
8DD-X/ 8D-X	.	8e-/J	.
4CC/ 4C	.	8e-/L	4A-X\ 4c
.	.	8f/	.
8BBB-/ 8BB-	.	8e-/J	8G\ 8d
*v	*v	*	*
=26	=26	=26
*^	*	*
!	!LO:N:vis=4	!	!
8AAA-\L	8AAA-/	2.E-<:/ 2.A-<: 2.c: 2.e-:	2.ryy
!	!LO:N:vis=4	!	!
8AA-\	8AA-/	.	.
!	!LO:N:vis=4	!	!
8EE-\	8EE-/	.	.
!	!LO:N:vis=4	!	!
8C\	8C/	.	.
!	!LO:N:vis=4	!	!
8AA-\	8AA-/	.	.
!	!LO:N:vis=4	!	!
8EE-\J	8EE-/	.	.
*v	*v	*	*
.	8qG</ 8qg	.
8BBB-\L	[4.F</ [4.f	2.G\ 2.B-
8GG\	.	.
8EE-\	.	.
8D-\	4F</] 4f]	.
8GG\	.	.
8EE-\J	8E-</ 8e-	.
*	*v	*v
!!LO:LB:g=original
=27	=27
8CC\L	4.E-<:/ 4.A-<: 4.c: 4.e-:
8AA-\	.
8EE-\	.
8C\	4.A-:/ 4.c: 4.e-: 4.a-:
8AA-\	.
8EE-\J	.
!	!LO:T:n=2:a
!	!LO:T:n=1:a
8EE-\L	[4.B-:/ [4.e-: [4.g: [4.b-:
8E-\	.
8BB-\	.
8G\	4B-/] 4e-] 4g] 4b-]
8E-\	.
8BB-\J	8e-/
=28	=28
*	*^
*	*	*^
8AAA-\L 8AA-	4.c:/ 4.e-: 4.a-: 4.cc:	2.ryy	2.ryy
8E-\	.	.	.
8C\	.	.	.
8A-\	4.c:/ 4.e-: 4.a-: 4.cc:	.	.
8E-\	.	.	.
8C\J	.	.	.
!	!LO:TX:a:t=e	!	!
8AA-\L	4.cc/	4.c\	2.en/
8En\	.	.	.
8C\	.	.	.
8A-\	4b-/	4B-\	.
8E\	.	.	.
8C\J	8a-/	8A-\	.
*	*	*v	*v
=29	=29	=29
8DD-\L	2.G<:/ 2.A-: 2.d-: 2.g:	2.ryy
8D-\	.	.
8AA-\	.	.
8F\	.	.
8D-\	.	.
8AA-\J	.	.
8DD-\L	4.F</ 4.A-< 4.d- 4.f	4.ryy
8AA-\	.	.
8D-\J	.	.
8FFF\L 8FF	4G-X/ 4g-X	4An/ 4c 4e-
8AAn\	.	.
8E-X\J	8F/ 8f	8ryy
=30	=30	=30
!	!LO:N:vis=2	!
8BBB-\L	2.F/ 2.B- 2.d- 2.f	2.ryy
8BB-\	.	.
8FF\	.	.
8D-\	.	.
8BB-\	.	.
8FF\J	.	.
.	8qA-</ 8qa-	.
8CC\L	[4.G-<X/ [4.g-X	2.An\ 2.c
8AAn\	.	.
8FF\	.	.
8E-\	4G-</] 4g-]	.
8AA\	.	.
8FF\J	8F</ 8f	.
*	*v	*v
!!LO:LB:g=original
=31	=31
8DD-\L	4.F<:/ 4.B-<: 4.d-: 4.f:
8BB-\	.
8FF\	.
8D-\	4.B-:/ 4.d-: 4.f: 4.b-:
8BB-\	.
8FF\J	.
!	!LO:T:n=2:a
!	!LO:T:n=1:a
8FFF\L 8FF	[4.c:/ [4.f: [4.an: [4.cc:
8F\	.
8C\	.
8An\	4c/] 4f] 4a] 4cc]
8F\	.
8C\J	8f/
=32	=32
*	*^
*	*	*^
8BBB-\L 8BB-	4.dd-:/	4.d-:\	2.f:/ 2.b-:
8F\	.	.	.
8D-\	.	.	.
8B-\	4cc/	4c\	.
8F\	.	.	.
8D-\J	8b-/	8B-\	.
8BB-\L 8F	8A-</L 8B-< 8dn 8a-	4.ryy	2.ryy
8BB-\ 8Dn	8A-</ 8B-< 8f	.	.
8BB-\J 8E-	8G</J 8B- 8e- 8g	.	.
8BB-\ 8F	8A-</ 8B-< 8d 8a-	8ryy	.
4BB-\ 4A-	8.dn/ 8.f 8.cc	8.c\	.
.	16b-/	16B-\	.
=33	=33	=33	=33
*^	*	*	*
8G/L	4.E-\	4.b-/	4.B-\	8e-\L
8A-/	.	.	.	8f\
8G/J	.	.	.	8e-\J
4.D-\ 4.G	4.ryy	4.bn/	4.Bn\	8f\L
.	.	.	.	8g\
.	.	.	.	8f\J
!	!	!LO:N:vis=4	!	!
8G/L	4.C\	4.cc/	4.c\	8e-/L
8A-/	.	.	.	8f/
8G/J	.	.	.	8e-/J
8EE-\L	8ryy	4.b-X/	8d-\L	4.ryy
8E-\	4ryy	.	8e-\	.
8G\J	.	.	8d-\J	.
*v	*v	*	*	*
!!LO:LB:g=original
=34	=34	=34	=34
8AAA-\L 8AA-	4.e-:/ 4.a-: 4.cc: 4.ee-:	2.ryy	2.ryy
8C\ 8E-	.	.	.
8E-\ 8A-	.	.	.
8A-\ 8c	4dn/ 4a- 4cc 4ddn	.	.
8E-\ 8A-	.	.	.
8C\J 8E-	8e-/ 8a- 8cc 8ee-	.	.
.	8qg/ 8qgg	.	.
8BBB-\L 8BB-	[4.ff/	2.g\ 2.b-	[4.f/
8D-\ 8E-	.	.	.
8E-\ 8G	.	.	.
8G\ 8d-	4ff/]	.	4f/]
8E-\ 8G	.	.	.
8D-\J 8E-	8ee-/	.	8e-\
*	*v	*v	*v
=35	=35
8CC\L 8C	4.e-:/ 4.a-: 4.cc: 4.ee-:
8E-\ 8A-	.
8A-\ 8c	.
8c\ 8e-	4.a-:/ 4.cc: 4.ee-: 4.aa-:
8A-\ 8c	.
8E-\J 8A-	.
8EE-\L 8E-	[4.b-:\ [4.dd-: [4.ee-: [4.bb-:
8G\ 8B- 8d-	.
8B-\ 8d- 8e-	.
8d->\ 8e-> 8g>	4b-\] 4dd-] 4ee-] 4bb-]
8B-\ 8d- 8e-	.
8G\J 8B- 8d-	8b-/ 8dd- 8ee-
=36	=36
8AAA-\L 8AA-	4cc\ 4ee- 4aa- 4ccc
8C\ 8E-	.
!	!LO:TUP:a:problem:klamra łukowa, numer
8E-\ 8A-	24cc\LL 24ee- 24aa- 24ccc
.	24dd-\ 24ee- 24aa- 24ddd-
.	24cc\JJ 24ee- 24aa- 24ccc
8A-\ 8c	4bn\ 4ee- 4aa- 4bbn
8E-\ 8A-	.
8C\J 8E-	8cc\ 8ee- 8aa- 8ccc
8AAA-\L 8AA-	4dd-\ 4ddd-
8C\ 8En	.
8E\ 8A-	8cc\ 8ccc
8A-\ 8c	4b\ 4bb
8E\ 8A-	.
8C\J 8E	8a-\ 8aa-
!!LO:PB:g=original
=37	=37
*	*^
*	*	*^
8DD-\L 8D-	2.g:\ 2.a-: 2.dd-: 2.gg:	2.ryy	2.ryy
8F\ 8A-	.	.	.
8A-\ 8d-	.	.	.
8d-\ 8f	.	.	.
8A-\ 8d-	.	.	.
8F\J 8A-	.	.	.
8DD-\L 8D-	4.f:/ 4.a-: 4.dd-: 4.ff:	4.ryy	4.ryy
8D-\ 8F 8A-	.	.	.
8F\J 8A- 8d-	.	.	.
8FFF\L 8FF	4gg-X/	4g-X\	8r
8FF\ 8F	.	.	4an/ 4ee-
8F\J 8An 8c 8e-	8ff/	8f\	.
=38	=38	=38	=38
8BBB-\L 8BB-	4.f:/ 4.b-: 4.dd-: 4.ff:	2.ryy	2.ryy
8D-\ 8F	.	.	.
8F\ 8B-	.	.	.
8B-\ 8d-	4en:/ 4b-: 4dd-: 4een:	.	.
8F\ 8B-	.	.	.
8D-\J 8F	8f:/ 8b-: 8dd-: 8ff:	.	.
.	8qa-/ 8qaa-	.	.
8CC\L 8C	[4.gg-X/	[4.g-X\	2.an/ 2.cc
8C\ 8F	.	.	.
8F\ 8An	.	.	.
8A\ 8e-	4gg-/]	4g-\]	.
8F\ 8A	.	.	.
8C\J 8F	8ff/	8f\	.
=39	=39	=39	=39
*^	*	*	*
8DD-\L 8D-	4.ryy	4.f/ 4.b- 4.dd- 4.ff	4.ryy	4.ryy
8F\ 8B-	.	.	.	.
8D-\J 8F	.	.	.	.
8r	8CC\ 8C	4bb-/	4dd-\	8r
8G-X/L 8B-	4C\ 4E-	.	.	8ee-\L 8gg-X
8F/J 8An	.	8aan/	8an\	8ff\J 8ee-
8AAAn\L 8AAn	4ryy	4ccc/	4cc\	8r
8AA:\ 8E-: 8G-X: 8c:	.	.	.	8ee-\L 8gg-X
8BB-\J 8D- 8F 8B-	2ryy	8ryy	8ryy	8b-\J 8dd- 8ff 8bb-
8CC\L 8C	.	4ccc\	4ee-\	8ryy
8C\ 8E- 8G-X 8An	.	.	.	8gg-X\L 8aan
8D-\J 8F 8B-	.	8ryy	8ryy	8dd-\J 8ff 8bb- 8ddd-
*	*	*v	*v	*v
!!LO:LB:g=original
=40	=40	=40
8EE-\L 8E-	2.ryy	4.cc:\ 4.ee-: 4.aa-: 4.ccc:
8E-\ 8A- 8c	.	.
8A-\J 8c 8e-	.	.
8F\L 8A- 8Bn 8dn	.	8bn:\L 8ddn: 8aa-: 8bbn:
8E-\ 8A- 8c	.	8cc:\ 8ee-: 8aa-: 8ccc:
8Dn\J 8F 8A- 8Bn	.	8ddn:\J 8aa-: 8bbn: 8fff:
8r	8FF\L 8F	4.b-X\ 4.ddn 4.ff 4.bb-X
4dn/	8B-X\	.
.	8A-X\J	.
8F-X:\L 8A-: 8d-X:	8ryy	8an:\L 8dd-X: 8aan:
8E-:\ 8G: 8d-:	4ryy	8b-:\ 8dd-: 8ee-: 8bb-:
8EE-:\J 8BB-: 8E-: 8G:	.	8dd-:\J 8gg: 8bb-: 8eee-:
*v	*v	*
=41	=41
8AAA-\L 8AA-	2.a-\ 2.cc 2.ee- 2.aa-
8A-\	.
8E-\	.
8c\	.
8A-\	.
8E-\J	.
!	!LO:N:vis=2r
8AA-\L	2.r
8A-\	.
8E-\	.
8c\	.
8A-\	.
8E-\J	.
=42	=42
8AA-\L	4.a-/
8A-\	.
8F-X\	.
8d-\	4ff-X\
8A-\	.
8F-\J	16f-X/LL
.	16g-X/JJ
8AA-\L	[4.a-/
8A-\	.
8E-\	.
8c\	8a-/L]
8A-\	8gn/
8E-\J	8fn/J
!!LO:LB:g=original
=43	=43
8AA-\L	8e-/
8G\	[4f/
8E-\	.
8d-\	8f/L]
8G\	8e-/
8E-\J	16An/L
.	16B-/JJ
8AA-\L	4.c/
8E-\	.
8C\J	.
8AA-/L	4.r
8EE-/	.
8CC/J	.
=44	=44
!LO:TX:t=P:problem:zapis taktu u dołu strony za pomocą odnośnika	!LO:TX:t=P:problem:zapis taktu u dołu strony za pomocą odnośnika
8AAA-\L	4.A-</
8AA-\	.
8FF-\X	.
8D-\	4f-X/
8AA-\	.
8FF-J\	16F-X</LL
.	16G-X</JJ
8AAA-\L	4.A-</
8AA-\	.
8EE-\J	.
8CL	8E-</L
8AA-J	8c</J
16D-L	16B-</L
16CJ	16A-</J
=45	=45
*^	*^
2.EE-\ 2.BB-	2.ryy	8G/L 8e-	2.ryy
.	.	8B-/ 8gn	.
.	.	8d-/J 8b-	.
.	.	[4.f/ [4.dd-	.
[4.E-\	4.r	8f/L] 8dd-]	4.ryy
.	.	8en/ 8g	.
.	.	8e-X/J 8cc	.
4.E-\]	8r	8f/L	8dn\
.	8F/L	8b-/	4d-X\
.	8G/J	8e-/J	.
*v	*v	*	*
*	*v	*v
!!LO:LB:g=original
=46	=46
8AA-\L	4.c/ 4.a-
8A-\	.
8E-\	.
8c\	4.r
8A-\	.
8E-\J	.
8DD-\L	4.A-</ 4.f 4.a-
8D-\	.
8AA-\	.
8F\	8A-</L 8f 8a-
8D-\	8A-</ 8e- 8g
8AA-\J	8A-</J 8d- 8f
=47	=47
*^	*
*	*^	*
4AAA-/	8AAA-\L	2.ryy	2.A-/ 2.c 2.e-
.	8C\	.	.
4ryy	8AA-\	.	.
.	8E-\	.	.
4ryy	8C\	.	.
.	8AA-\J	.	.
!	!	!	!LO:TX:t=rallentando_:problem:dynamics with extention lines
8F-X/L	[4.DD-\	4.ryy	4.A-/ [4.d- [4.a-
8D-/	.	.	.
8AA-/J	.	.	.
8qF-X\	.	8qA-/	.
8F-\L	4DD-\]	8A-/L	4d-/] 4a-]
8E-\	.	8G-X/J	.
8D-\J	8DD-\	8ryy	8F-<X/ 8A-< 8f-X
*	*v	*v	*
=48	=48	=48
4.C/	8AAA-\L	2.E-</ 2.A-< 2.e-
.	8AA-\	.
.	8EE-\	.
4.ryy	8C\	.
.	8AA-\	.
.	8EE-\J	.
2.ryy	8AAA-\L	[2.E-</ [2.A-< [2.c<
.	8AA-\	.
.	8EE-\	.
.	8C\	.
.	8AA-\	.
.	8EE-\J	.
*v	*v	*
=49	=49
1.AAA-;<	1.E-<;] 1.A-<] 1.c<]
==	==
*-	*-
!!!system-decoration: {s1,s2}
!!!RDF**kern: > = above
!!!RDF**kern: < = below
!!!ENC: Andrzej Gręziak
!!!END: 2021-05-25
